icons/issue-draft-24.svg

<svg xmlns="http://www.w3.org/2000/svg" width="24" height="24" viewBox="0 0 24 24"><path fill-rule="evenodd" d="M10.157 1.154a11.07 11.07 0 013.686 0 .75.75 0 01-.25 1.479 9.568 9.568 0 00-3.186 0 .75.75 0 01-.25-1.48zM6.68 3.205a.75.75 0 01-.177 1.046A9.558 9.558 0 004.25 6.503a.75.75 0 01-1.223-.87 11.058 11.058 0 012.606-2.605.75.75 0 011.046.177zm10.64 0a.75.75 0 011.046-.177 11.058 11.058 0 012.605 2.606.75.75 0 11-1.222.869 9.558 9.558 0 00-2.252-2.252.75.75 0 01-.177-1.046zM2.018 9.543a.75.75 0 01.615.864 9.568 9.568 0 000 3.186.75.75 0 01-1.48.25 11.07 11.07 0 010-3.686.75.75 0 01.865-.614zm19.964 0a.75.75 0 01.864.614 11.066 11.066 0 010 3.686.75.75 0 01-1.479-.25 9.56 9.56 0 000-3.186.75.75 0 01.615-.864zM3.205 17.32a.75.75 0 011.046.177 9.558 9.558 0 002.252 2.252.75.75 0 11-.87 1.223 11.058 11.058 0 01-2.605-2.606.75.75 0 01.177-1.046zm17.59 0a.75.75 0 01.176 1.046 11.057 11.057 0 01-2.605 2.605.75.75 0 11-.869-1.222 9.558 9.558 0 002.252-2.252.75.75 0 011.046-.177zM9.543 21.982a.75.75 0 01.864-.615 9.56 9.56 0 003.186 0 .75.75 0 01.25 1.48 11.066 11.066 0 01-3.686 0 .75.75 0 01-.614-.865z"/></svg>

<svg xmlns="http://www.w3.org/2000/svg" width="24" height="24" viewBox="0 0 24 24">
  <defs/>
  <path d="M17.32,3.205 C17.56,2.867 18.028,2.788 18.366,3.028 C19.374,3.745 20.255,4.626 20.971,5.634 C21.135,5.852 21.167,6.142 21.056,6.391 C20.945,6.64 20.707,6.808 20.436,6.832 C20.164,6.855 19.901,6.729 19.749,6.503 C19.13,5.632 18.368,4.87 17.497,4.251 C17.159,4.011 17.08,3.543 17.32,3.205 Z M20.795,17.32 C21.132,17.56 21.211,18.029 20.971,18.366 C20.254,19.374 19.374,20.254 18.366,20.971 C18.148,21.135 17.858,21.167 17.609,21.056 C17.36,20.945 17.192,20.707 17.168,20.436 C17.145,20.164 17.271,19.901 17.497,19.749 C18.368,19.13 19.13,18.368 19.749,17.497 C19.989,17.159 20.457,17.08 20.795,17.32 Z M2.018,9.543 C2.426,9.612 2.702,9.999 2.633,10.407 C2.455,11.462 2.455,12.538 2.633,13.593 C2.702,14.002 2.427,14.389 2.018,14.458 C1.609,14.527 1.222,14.252 1.153,13.843 C0.947,12.623 0.947,11.377 1.153,10.157 C1.222,9.749 1.61,9.474 2.018,9.543 Z M9.543,21.982 C9.612,21.574 9.999,21.298 10.407,21.367 C11.462,21.545 12.538,21.545 13.593,21.367 C14.002,21.298 14.389,21.573 14.458,21.982 C14.527,22.391 14.252,22.778 13.843,22.847 C12.623,23.053 11.377,23.053 10.157,22.847 C9.749,22.778 9.474,22.39 9.543,21.982 Z M6.68,3.205 C6.92,3.543 6.841,4.011 6.503,4.251 C5.631,4.87 4.87,5.632 4.25,6.503 C4.01,6.841 3.541,6.92 3.204,6.68 C2.866,6.439 2.787,5.971 3.027,5.633 C3.744,4.625 4.625,3.744 5.633,3.028 C5.971,2.788 6.439,2.867 6.679,3.205 Z M3.205,17.32 C3.543,17.08 4.011,17.159 4.251,17.497 C4.87,18.368 5.632,19.13 6.503,19.749 C6.841,19.989 6.92,20.458 6.68,20.795 C6.439,21.133 5.971,21.212 5.633,20.972 C4.625,20.255 3.744,19.374 3.028,18.366 C2.788,18.028 2.867,17.56 3.205,17.32 Z M10.157,1.154 C11.377,0.948 12.623,0.948 13.843,1.154 C14.25,1.225 14.523,1.611 14.454,2.018 C14.385,2.425 14,2.7 13.593,2.633 C12.538,2.455 11.462,2.455 10.407,2.633 C9.998,2.702 9.611,2.427 9.542,2.018 C9.473,1.609 9.748,1.222 10.157,1.153 Z M21.982,9.543 C22.39,9.474 22.777,9.749 22.846,10.157 C23.052,11.377 23.052,12.623 22.846,13.843 C22.775,14.25 22.389,14.523 21.982,14.454 C21.575,14.385 21.3,14 21.367,13.593 C21.545,12.538 21.545,11.462 21.367,10.407 C21.298,9.999 21.574,9.612 21.982,9.543 Z"/>
</svg>
